!!!COM: Music21
!!!OTL: hornpipe_Miss-Browns
!!!OMV: hornpipe_Miss-Browns
**kern
*clefG2
*k[f#c#]
*D:
*M4/4
=1
4f#
=
8.dL
16dJk
4d
8.dL
16f#Jk
8.aL
16f#Jk
=
8.ddL
16f#Jk
8.aL
16f#Jk
8.ddL
16f#Jk
8.aL
16f#Jk
=
8.eL
16eJk
4e
8.eL
16gJk
8.bL
16gJk
=
8.eeL
16gJk
8.bL
16gJk
8.eeL
16gJk
8.bL
16gJk
!!linebreak:original
=
8.dL
16dJk
4d
8.dL
16f#Jk
8.aL
16f#Jk
=
8.ddL
16f#Jk
8.aL
16f#Jk
8.ddL
16f#Jk
8.aL
16f#Jk
=
8.eL
16ggJk
8.ff#L
16ggJk
8.eeL
16ddJk
8.cc#L
16eeJk
=
4dd
4dd
4dd
4ryy
=||
*M4/4
4f#
!!linebreak:original
=
8.dL
16dJk
4d
8.dL
16f#Jk
8.aL
16f#Jk
=
8.ddL
16f#Jk
8.aL
16f#Jk
8.ddL
16f#Jk
8.aL
16f#Jk
=
8.eL
16eJk
4e
8.eL
16gJk
8.bL
16gJk
=
8.eeL
16gJk
8.bL
16gJk
8.eeL
16gJk
8.bL
16gJk
!!linebreak:original
=
8.dL
16dJk
4d
8.dL
16f#Jk
8.aL
16f#Jk
=
8.ddL
16f#Jk
8.aL
16f#Jk
8.ddL
16f#Jk
8.aL
16f#Jk
=
8.eL
16ggJk
8.ff#L
16ggJk
8.eeL
16ddJk
8.cc#L
16eeJk
=
4dd
4dd
4dd
4ryy
=||
4ee
2.ryy
!!linebreak:original
=
8.ff#L
16ddJk
4dd
8.ff#L
16ddJk
8.aaL
16ddJk
=
8.ff#L
16ddJk
8.ddL
16ff#Jk
4aa
8.eeL
16ddJk
=
8.cc#L
16aJk
4a
8.cc#L
16aJk
8.eeL
16aJk
=
8.cc#L
16aJk
8.aL
16cc#Jk
8.eeL
16ggJk
8.ff#L
16eeJk
=
8.ff#L
16ddJk
4dd
8.ff#L
16ddJk
8.aaL
16ddJk
!!linebreak:original
=
8.ff#L
16ddJk
8.ddL
16ff#Jk
4aa
4a
=
8.bL
16bbJk
8.aaL
16ggJk
8.ff#L
16eeJk
8.ddL
16cc#Jk
=
4dd
4dd
4dd
4ryy
=||
4ee
2.ryy
=
8.ff#L
16ddJk
4dd
8.ff#L
16ddJk
8.aaL
16ddJk
=
8.ff#L
16ddJk
8.ddL
16ff#Jk
4aa
8.eeL
16ddJk
!!linebreak:original
=
8.cc#L
16aJk
4a
8.cc#L
16aJk
8.eeL
16aJk
=
8.cc#L
16aJk
8.aL
16cc#Jk
8.eeL
16ggJk
8.ff#L
16eeJk
=
8.ff#L
16ddJk
4dd
8.ff#L
16ddJk
8.aaL
16ddJk
=
8.ff#L
16ddJk
8.ddL
16ff#Jk
4aa
4a
=
8.bL
16bbJk
8.aaL
16ggJk
8.ff#L
16eeJk
8.ddL
16cc#Jk
!!linebreak:original
=
4dd
4dd
4dd
4ryy
=||
*-
